X: 8002
T:Valse Bourr\'ee
R:Bourr\'ee
R:Waltz
M:6/8
O:France
K:G
d|g2d B>cd|g2d B>cd|e2dc2B|1A>BA GBd:|2A>BAG3||\
|:d|B>cde2d|B>cde2d|e2dc2B|A>BAG3:|
